images/menu-group.svg

<svg xmlns="http://www.w3.org/2000/svg" viewBox="0 0 128 64" enable-background="new 0 0 128 64"><style type="text/css">.st0{fill:#C7CBD7;} .st1{fill:#83868E;}</style><path class="st0" d="M52 22.9l-20-10.9-20 11.3 20 10.4 20-10.8zm-20-8.5l15.7 8.5-15.7 8.5-15.7-8.2 15.7-8.8zM42.9 29.4l4.8 2.6-15.7 8.5-15.7-8.2 4.8-2.6-2.2-1.2-6.9 3.9 20 10.5 20-10.9-6.9-3.7zM42.9 38.6l4.8 2.5-15.7 8.5-15.7-8.1 4.8-2.7-2.2-1.1-6.9 3.9 20 10.4 20-10.9-6.9-3.7z"/><path class="st1" d="M117 22.9l-20-10.9-20 11.3 20 10.4 20-10.8zm-20-8.5l15.7 8.5-15.7 8.5-15.7-8.2 15.7-8.8zM107.9 29.4l4.8 2.6-15.7 8.5-15.7-8.2 4.8-2.6-2.2-1.2-6.9 3.9 20 10.5 20-10.9-6.9-3.7zM107.9 38.6l4.8 2.5-15.7 8.5-15.7-8.1 4.8-2.7-2.2-1.1-6.9 3.9 20 10.4 20-10.9-6.9-3.7z"/></svg>

<?xml version="1.0" encoding="utf-8"?>
<!-- Generator: Adobe Illustrator 21.0.1, SVG Export Plug-In . SVG Version: 6.00 Build 0)  -->
<svg version="1.1" id="Layer_1" xmlns="http://www.w3.org/2000/svg" xmlns:xlink="http://www.w3.org/1999/xlink" x="0px" y="0px"
	 viewBox="0 0 128 64" style="enable-background:new 0 0 128 64;" xml:space="preserve">
<style type="text/css">
	.st0{fill:#C7CBD7;}
	.st1{fill:#83868E;}
</style>
<g>
	<path class="st0" d="M52,22.9L32,12L12,23.3l20,10.4L52,22.9z M32,14.4l15.7,8.5L32,31.4l-15.7-8.2L32,14.4z"/>
	<polygon class="st0" points="42.9,29.4 47.7,32 32,40.5 16.3,32.3 21.1,29.7 18.9,28.5 12,32.4 32,42.9 52,32 45.1,28.3 	"/>
	<polygon class="st0" points="42.9,38.6 47.7,41.1 32,49.6 16.3,41.5 21.1,38.8 18.9,37.7 12,41.6 32,52 52,41.1 45.1,37.4 	"/>
</g>
<g>
	<path class="st1" d="M117,22.9L97,12L77,23.3l20,10.4L117,22.9z M97,14.4l15.7,8.5L97,31.4l-15.7-8.2L97,14.4z"/>
	<polygon class="st1" points="107.9,29.4 112.7,32 97,40.5 81.3,32.3 86.1,29.7 83.9,28.5 77,32.4 97,42.9 117,32 110.1,28.3 	"/>
	<polygon class="st1" points="107.9,38.6 112.7,41.1 97,49.6 81.3,41.5 86.1,38.8 83.9,37.7 77,41.6 97,52 117,41.1 110.1,37.4 	"/>
</g>
</svg>
